X: 42
T: the Humours of Ballyconnell
R: reel
Z: 2012 John Chambers <jc@trillian.mit.edu>
B: "100 Essential Irish Session Tunes" 1995 Dave Mallinson, ed.
M: 4/4
L: 1/8
K: D
   A | "D"defe dBAF | BFAF "A7"E3A | "D"defe dBBA | "G"((3Bcd) "A"AF "D"D3 :|
|: E | "D"FDAD BDAF | "Em"GEE cEBE | "D"FDAD BDAF | "G"GB"A"AF "D"D3 :|
|: f | "A7"a2bg a2fa | gece gece | "A7"a2bg a2fa | gecA "D"d3 :|

%%sep 2 1 500
%%sep 1 1 500

